gtk-icons/Papirus-Dark-GTK/16x16/actions/mail-folder-sent.svg

<?xml version="1.0" encoding="UTF-8" standalone="no"?>
<!-- Created with Inkscape (http://www.inkscape.org/) -->

<svg
   xmlns:osb="http://www.openswatchbook.org/uri/2009/osb"
   xmlns:dc="http://purl.org/dc/elements/1.1/"
   xmlns:cc="http://creativecommons.org/ns#"
   xmlns:rdf="http://www.w3.org/1999/02/22-rdf-syntax-ns#"
   xmlns:svg="http://www.w3.org/2000/svg"
   xmlns="http://www.w3.org/2000/svg"
   xmlns:sodipodi="http://sodipodi.sourceforge.net/DTD/sodipodi-0.dtd"
   xmlns:inkscape="http://www.inkscape.org/namespaces/inkscape"
   sodipodi:docname="mail-folder-sent.svg"
   inkscape:export-filename="/home/sam/source-symbolic.png"
   inkscape:export-xdpi="270"
   inkscape:export-ydpi="270"
   height="16"
   id="svg7384"
   style="enable-background:new"
   version="1.1"
   inkscape:version="0.91 r"
   width="16">
  <sodipodi:namedview
     inkscape:bbox-nodes="true"
     inkscape:bbox-paths="false"
     bordercolor="#666666"
     borderlayer="false"
     borderopacity="1"
     inkscape:current-layer="layer12"
     inkscape:cx="-20.437764"
     inkscape:cy="11.350013"
     gridtolerance="10"
     inkscape:guide-bbox="true"
     guidetolerance="10"
     id="namedview88"
     inkscape:object-nodes="true"
     inkscape:object-paths="true"
     objecttolerance="10"
     pagecolor="#f7f7f7"
     inkscape:pageopacity="0"
     inkscape:pageshadow="2"
     showborder="true"
     showgrid="false"
     showguides="true"
     inkscape:showpageshadow="false"
     inkscape:snap-bbox="true"
     inkscape:snap-bbox-edge-midpoints="false"
     inkscape:snap-bbox-midpoints="true"
     inkscape:snap-center="false"
     inkscape:snap-global="true"
     inkscape:snap-grids="true"
     inkscape:snap-intersection-paths="true"
     inkscape:snap-midpoints="true"
     inkscape:snap-nodes="true"
     inkscape:snap-object-midpoints="true"
     inkscape:snap-others="true"
     inkscape:snap-page="false"
     inkscape:snap-smooth-nodes="true"
     inkscape:snap-to-guides="true"
     inkscape:window-height="842"
     inkscape:window-maximized="1"
     inkscape:window-width="1600"
     inkscape:window-x="-4"
     inkscape:window-y="32"
     inkscape:zoom="9.95">
    <inkscape:grid
       color="#ffffff"
       dotted="false"
       empcolor="#0800ff"
       empopacity="0.4627451"
       empspacing="4"
       enabled="true"
       id="grid4866"
       opacity="0.16470588"
       originx="-284.00023"
       originy="-316.01007"
       snapvisiblegridlinesonly="true"
       spacingx="0.25px"
       spacingy="0.25px"
       type="xygrid"
       visible="true" />
  </sodipodi:namedview>
  <metadata
     id="metadata90">
    <rdf:RDF>
      <cc:Work
         rdf:about="">
        <dc:format>image/svg+xml</dc:format>
        <dc:type
           rdf:resource="http://purl.org/dc/dcmitype/StillImage" />
        <dc:title>Paper Symbolic Icon Theme</dc:title>
      </cc:Work>
    </rdf:RDF>
  </metadata>
  <title
     id="title8473">Paper Symbolic Icon Theme</title>
  <defs
     id="defs7386">
    <linearGradient
       id="linearGradient5606"
       osb:paint="solid">
      <stop
         id="stop5608"
         offset="0"
         style="stop-color:#ffffff;stop-opacity:1;" />
    </linearGradient>
  </defs>
  <g
     inkscape:groupmode="layer"
     id="layer12"
     inkscape:label="actions"
     style="display:inline"
     transform="translate(-525.00043,99.010074)">
    <path
       style="color:#ffffff;font-style:normal;font-variant:normal;font-weight:normal;font-stretch:normal;font-size:medium;line-height:normal;font-family:Sans;-inkscape-font-specification:Sans;text-indent:0;text-align:start;text-decoration:none;text-decoration-line:none;letter-spacing:normal;word-spacing:normal;text-transform:none;direction:ltr;block-progression:tb;writing-mode:lr-tb;baseline-shift:baseline;text-anchor:start;display:inline;overflow:visible;visibility:visible;opacity:0.72;fill:#ffffff;fill-opacity:1;stroke:none;stroke-width:2;marker:none;enable-background:accumulate"
       d="M 1.84375 1.0097656 C 1.5625 1.0566456 1 1.2597656 1 2.0097656 L 1 13.009766 C 1 13.009766 1 14.009766 2 14.009766 L 14 14.009766 C 14 14.009766 15 14.009766 15 13.009766 L 15 4.0097656 C 15 3.0097656 14 3.0097656 14 3.0097656 L 9 3.0097656 L 7 1.0097656 L 2 1.0097656 C 2 1.0097656 1.9375 0.99416562 1.84375 1.0097656 z M 8.3085938 4 C 8.8449597 4 9.3375648 4.0836394 9.7890625 4.25 C 10.240567 4.4130991 10.629183 4.6490966 10.955078 4.9589844 C 11.284366 5.26561 11.541295 5.6397109 11.724609 6.0800781 C 11.907924 6.5204453 12 7.0151322 12 7.5664062 C 12 7.876294 11.960888 8.1829639 11.882812 8.4863281 C 11.80813 8.7896917 11.693268 9.0633006 11.537109 9.3046875 C 11.380951 9.5428117 11.182947 9.736668 10.945312 9.8867188 C 10.711078 10.033508 10.434344 10.105469 10.115234 10.105469 C 9.986239 10.105469 9.8654242 10.091861 9.75 10.0625 C 9.6379755 10.029879 9.5345067 9.9851392 9.4394531 9.9296875 C 9.3443995 9.8709723 9.2607433 9.8054951 9.1894531 9.7304688 C 9.1215279 9.6521816 9.0685567 9.5659449 9.03125 9.4746094 L 8.9550781 9.4746094 C 8.8905596 9.5561586 8.8153162 9.6365559 8.7304688 9.7148438 C 8.6456005 9.7898688 8.5505514 9.8572998 8.4453125 9.9160156 C 8.3400736 9.9747308 8.2227454 10.020758 8.09375 10.056641 C 7.9681405 10.089262 7.8310066 10.105469 7.6816406 10.105469 C 7.3998795 10.105469 7.1483975 10.060086 6.9277344 9.96875 C 6.710471 9.8741523 6.5282722 9.7418883 6.3789062 9.5722656 C 6.2295403 9.3993808 6.1151921 9.1951554 6.0371094 8.9570312 C 5.9590336 8.715645 5.9199219 8.4485196 5.9199219 8.1582031 C 5.9199219 7.8222199 5.972893 7.5149052 6.078125 7.234375 C 6.1833639 6.9538448 6.3343572 6.712008 6.53125 6.5097656 C 6.7281497 6.3042605 6.9662858 6.1460631 7.2480469 6.0351562 C 7.529808 5.9209866 7.845654 5.8632813 8.1953125 5.8632812 C 8.3480782 5.8632812 8.5069709 5.8723647 8.6699219 5.8886719 C 8.8328659 5.9049791 8.9893059 5.9270242 9.1386719 5.953125 C 9.2914376 5.9792192 9.4340112 6.0083946 9.5664062 6.0410156 C 9.6988013 6.0736367 9.8111964 6.1060508 9.90625 6.1386719 L 9.8007812 8.1875 C 9.7938288 8.2592636 9.7890625 8.329936 9.7890625 8.3984375 L 9.7890625 8.53125 C 9.7890625 8.668253 9.7999419 8.7810672 9.8203125 8.8691406 C 9.8440898 8.9572141 9.8723221 9.0259334 9.90625 9.078125 C 9.9435845 9.1270532 9.9851559 9.1620673 10.029297 9.1816406 C 10.076851 9.2012146 10.126843 9.2109375 10.177734 9.2109375 C 10.296551 9.2109375 10.40002 9.1661984 10.488281 9.078125 C 10.576542 8.9900516 10.649319 8.872707 10.707031 8.7226562 C 10.764736 8.5726049 10.807335 8.3962459 10.837891 8.1972656 C 10.868412 7.9950232 10.884766 7.7817177 10.884766 7.5566406 C 10.884766 7.1391075 10.820409 6.7676039 10.691406 6.4414062 C 10.562411 6.1152086 10.381239 5.8403108 10.150391 5.6152344 C 9.9229489 5.3901579 9.6516542 5.2189935 9.3359375 5.1015625 C 9.0202277 4.9841308 8.6786159 4.9238281 8.3085938 4.9238281 C 7.7891987 4.9238281 7.330779 5.0074669 6.9335938 5.1738281 C 6.5398012 5.3401887 6.2076361 5.5729447 5.9394531 5.8730469 C 5.6746629 6.1698869 5.473172 6.5238938 5.3339844 6.9316406 C 5.1981965 7.3393882 5.1308594 7.7854497 5.1308594 8.2714844 C 5.1308594 8.7216372 5.1897767 9.1216715 5.3085938 9.4707031 C 5.4274108 9.8164727 5.6036564 10.107578 5.8378906 10.345703 C 6.0721319 10.580565 6.360259 10.76081 6.703125 10.884766 C 7.045991 11.005459 7.4425132 11.066406 7.890625 11.066406 C 8.0807253 11.066406 8.27627 11.054084 8.4765625 11.03125 C 8.6768481 11.008416 8.8753659 10.976641 9.0722656 10.9375 C 9.2725512 10.898359 9.4680959 10.852331 9.6582031 10.796875 C 9.8517031 10.74142 10.033902 10.680472 10.207031 10.615234 L 10.207031 11.554688 C 9.8879287 11.69169 9.5329709 11.798665 9.1425781 11.876953 C 8.7555781 11.958502 8.3417099 12 7.9003906 12 C 7.2859419 12 6.7354464 11.915716 6.25 11.746094 C 5.7679464 11.579733 5.3619845 11.337896 5.0292969 11.021484 C 4.6966162 10.705072 4.4421541 10.318005 4.265625 9.8613281 C 4.0891028 9.4013896 4 8.8814136 4 8.3007812 C 4 7.8962958 4.0450649 7.5092286 4.1367188 7.140625 C 4.2283796 6.7687599 4.3620269 6.425787 4.5351562 6.109375 C 4.7082926 5.7897009 4.9182033 5.4998836 5.1660156 5.2421875 C 5.4172277 4.9812293 5.7023818 4.7607954 6.0214844 4.578125 C 6.3405939 4.3921918 6.6925647 4.2502028 7.0761719 4.1523438 C 7.4597721 4.0512226 7.8706672 4 8.3085938 4 z M 8.1953125 6.7539062 C 7.9950269 6.7539062 7.8266876 6.7954032 7.6875 6.8769531 C 7.5483193 6.9585024 7.4339712 7.0654779 7.3457031 7.1992188 C 7.2608348 7.3329596 7.1989374 7.4872708 7.1582031 7.6601562 C 7.1208686 7.8297789 7.1015625 8.0015875 7.1015625 8.1777344 C 7.1015625 8.5430759 7.1659196 8.8076046 7.2949219 8.9707031 C 7.4239172 9.1305402 7.5947231 9.2109375 7.8085938 9.2109375 C 7.9511742 9.2109375 8.0739421 9.1791628 8.1757812 9.1171875 C 8.2810202 9.0519454 8.3651898 8.9637763 8.4296875 8.8496094 C 8.4976127 8.7321783 8.5500635 8.5934308 8.5839844 8.4335938 C 8.6213189 8.2704946 8.6440768 8.0896053 8.6542969 7.890625 L 8.7148438 6.8085938 C 8.6469185 6.7922866 8.5681886 6.7793182 8.4765625 6.7695312 C 8.3849017 6.7597443 8.2903661 6.7539062 8.1953125 6.7539062 z "
       transform="translate(525.00043,-99.010074)"
       id="path4147" />
    <g
       style="font-style:normal;font-variant:normal;font-weight:bold;font-stretch:normal;font-size:10px;line-height:125%;font-family:'Droid Sans';-inkscape-font-specification:'Droid Sans Bold';letter-spacing:0px;word-spacing:0px;fill:#ffffff;fill-opacity:1;stroke:none;stroke-width:1px;stroke-linecap:butt;stroke-linejoin:miter;stroke-opacity:1"
       id="text4138"
       transform="matrix(1.0428643,0,0,1.0020796,-3.0916598,2.0660674)" />
  </g>
</svg>

<?xml version="1.0" encoding="UTF-8" standalone="no"?>
<!-- Created with Inkscape (http://www.inkscape.org/) -->
<svg id="svg7384" xmlns:rdf="http://www.w3.org/1999/02/22-rdf-syntax-ns#" style="enable-background:new" xmlns="http://www.w3.org/2000/svg" xmlns:osb="http://www.openswatchbook.org/uri/2009/osb" height="16" width="16" version="1.1" xmlns:cc="http://creativecommons.org/ns#" xmlns:dc="http://purl.org/dc/elements/1.1/">
 <metadata id="metadata90">
  <rdf:RDF>
   <cc:Work rdf:about="">
    <dc:format>image/svg+xml</dc:format>
    <dc:type rdf:resource="http://purl.org/dc/dcmitype/StillImage"/>
    <dc:title>Paper Symbolic Icon Theme</dc:title>
   </cc:Work>
  </rdf:RDF>
 </metadata>
 <title id="title8473">Paper Symbolic Icon Theme</title>
 <g id="layer12" transform="translate(-525 99.01)">
  <path id="path4147" opacity=".72" style="color:#ffffff;text-indent:0;block-progression:tb;text-decoration-line:none;enable-background:accumulate;text-transform:none" d="m1.8438 1.0098c-0.2813 0.0468-0.8438 0.25-0.8438 1v11s0 1 1 1h12s1 0 1-1v-9.0002c0-1-1-1-1-1h-5l-2-2h-5s-0.0625-0.01563-0.1562 0zm6.4648 2.9902c0.5364 0 1.029 0.0836 1.4805 0.25 0.4519 0.1631 0.8399 0.3991 1.1659 0.709 0.329 0.3066 0.586 0.6807 0.77 1.1211 0.183 0.4403 0.275 0.935 0.275 1.4863 0 0.3099-0.039 0.6166-0.117 0.9199-0.075 0.3034-0.19 0.577-0.346 0.8184-0.156 0.2381-0.354 0.432-0.592 0.582-0.234 0.1473-0.511 0.2183-0.83 0.2183-0.1288 0-0.2496-0.013-0.365-0.043-0.112-0.032-0.2155-0.0769-0.3105-0.1323-0.0951-0.0587-0.1788-0.1242-0.25-0.1992-0.068-0.0783-0.1209-0.1646-0.1583-0.2559h-0.0761c-0.0645 0.0816-0.1398 0.162-0.2246 0.2402-0.0849 0.0751-0.1799 0.1425-0.2852 0.2012-0.1052 0.0587-0.2226 0.105-0.3515 0.141-0.1257 0.032-0.2628 0.048-0.4122 0.048-0.2817 0-0.5332-0.045-0.7539-0.1362-0.2172-0.0946-0.3994-0.2269-0.5488-0.3965-0.1494-0.1729-0.2637-0.3771-0.3418-0.6153-0.0781-0.2414-0.1172-0.5085-0.1172-0.7988 0-0.336 0.053-0.6433 0.1582-0.9238 0.1053-0.2806 0.2563-0.5224 0.4531-0.7246 0.1969-0.2055 0.4351-0.3637 0.7168-0.4746 0.2818-0.1142 0.5977-0.1719 0.9473-0.1719 0.1528 0 0.3117 0.0091 0.4746 0.0254 0.163 0.0163 0.3194 0.0383 0.4688 0.0644 0.1527 0.0261 0.2953 0.0553 0.4277 0.0879s0.2448 0.0651 0.3398 0.0977l-0.1054 2.0488c-0.007 0.0718-0.0117 0.1424-0.0117 0.2109v0.1328c0 0.1371 0.0108 0.2499 0.0312 0.3379 0.0238 0.0881 0.052 0.1568 0.0859 0.209 0.0374 0.049 0.079 0.084 0.1228 0.1035 0.048 0.0196 0.098 0.0293 0.149 0.0293 0.119 0 0.222-0.0447 0.31-0.1328 0.089-0.088 0.161-0.2054 0.219-0.3554 0.058-0.1501 0.1-0.3265 0.131-0.5254 0.03-0.2023 0.047-0.4156 0.047-0.6407 0-0.4175-0.065-0.789-0.194-1.1152s-0.31-0.6011-0.541-0.8262c-0.2271-0.225-0.4983-0.3962-0.8141-0.5136-0.3157-0.1175-0.6573-0.1778-1.0273-0.1778-0.5194 0-0.9778 0.0837-1.375 0.25-0.3938 0.1664-0.726 0.3991-0.9941 0.6992-0.2648 0.2969-0.4663 0.6509-0.6055 1.0586-0.1358 0.4078-0.2031 0.8538-0.2031 1.3399 0 0.4501 0.0589 0.8502 0.1777 1.1992 0.1188 0.3458 0.2951 0.6373 0.5293 0.8753 0.2342 0.235 0.5224 0.415 0.8652 0.539 0.3429 0.12 0.7394 0.181 1.1875 0.181 0.1901 0 0.3857-0.012 0.586-0.035 0.2002-0.023 0.3988-0.054 0.5957-0.093 0.2003-0.04 0.3958-0.086 0.5859-0.141 0.1935-0.056 0.3758-0.117 0.5488-0.182v0.94c-0.3191 0.137-0.674 0.244-1.0644 0.322-0.387 0.082-0.8009 0.123-1.2422 0.123-0.6145 0-1.165-0.084-1.6504-0.254-0.4821-0.166-0.888-0.408-1.2207-0.725-0.3327-0.316-0.5871-0.703-0.7637-1.1597-0.1765-0.4599-0.2656-0.9799-0.2656-1.5605 0-0.4045 0.0451-0.7916 0.1367-1.1602 0.0917-0.3718 0.2253-0.7148 0.3985-1.0312 0.1731-0.3197 0.383-0.6095 0.6308-0.8672 0.2512-0.261 0.5364-0.4814 0.8555-0.6641 0.3191-0.1859 0.6711-0.3279 1.0547-0.4258 0.3836-0.1011 0.7945-0.1523 1.2324-0.1523zm-0.1133 2.7539c-0.2003 0-0.3686 0.0415-0.5078 0.1231-0.1392 0.0815-0.2535 0.1885-0.3418 0.3222-0.0849 0.1338-0.1468 0.2881-0.1875 0.461-0.0373 0.1696-0.0566 0.3414-0.0566 0.5175 0 0.3654 0.0643 0.6299 0.1933 0.793 0.129 0.1598 0.2998 0.2402 0.5137 0.2402 0.1426 0 0.2653-0.0317 0.3672-0.0937 0.1052-0.0653 0.1894-0.1534 0.2539-0.2676 0.0679-0.1174 0.1204-0.2562 0.1543-0.416 0.0373-0.1631 0.0601-0.344 0.0703-0.543l0.0605-1.082c-0.0679-0.0163-0.1466-0.0293-0.2382-0.0391-0.0917-0.0098-0.1862-0.0156-0.2813-0.0156z" transform="translate(525 -99.01)" fill="#fff"/>
 </g>
</svg>
